X:118
T:Dolphin, The
R:jig
D:Dervish: The Boys of Sligo
Z:id:hn-jig-118
M:6/8
K:G
BGG dGG|eGf g2d|BGG dGG|FAd AFD|BGG dGG|eGf g2a|
bge dBA|1 AGF G2A:|2 AGF G2a|:bge efg|f/e/d^c d2A|
Bdg deg|~f3 afd|bge efg|f/e/d^c d2A|Bdg dBA|1 AGF G2a:|2 AGF G2A||

